X:1
T:Im Leib mein junges Hertze
T:Horatio Vecchi
T:Source : Tricinia---Johann-Jacob Gastoldi und anderer Autorn---Nürnberg---P.Kauffmann---1607. Editor : André Vierendeels (23/03/17).
T:Notes : Original clefs : G2, G2, F3 Editorial accidentals above the staff Text Middle German by Valentin Hauszmann Original note values have been halved in 3-beat measures 
T:Im Leib mein junges Hertze
T:©
T:©
T:©
C:Horatio Vecchi
Z:©
%%score [ 1 2 3 ]
L:1/8
Q:1/4=120
M:4/4
K:C
V:1 treble nm="Soprano 1" snm="S 1"
V:2 treble nm="Soprano 2" snm="S 2"
V:3 bass nm="Bass" snm="B"
V:1
"^1)" e6 f2 | g4 f3 e | d4 d4 |[M:6/4] e2 g2 ^f2 g4 g2 | c2 c2 d2 e4 e2 |[M:3/4] e2 f2 g2 | %6
w: Im Leib|mein jung- es|Hert- ze,|thut sprin- gen, tanz- en,|weil mir die schan- zen,|so wol- ge-|
w: Sie ist|für mich die|rech- te,|die mir kan stil- len,|nach mei- nem wil- len,|durch schimpff und|
[M:4/4] a4 g4 | z2 g4 f2- | f2 e2 d4 | c8 :: g4 g2 a2 | g6 g2 | e3 d e2 ^f2 | g4 d4 | z4 z2 d2 | %15
w: ra- then,|dasz mir|_ kan ba-|ten,|zu al- lem|glück, zu|gros- sen nutz und|from- men,|denn|
w: scher- ze,|jetzt al-|* len schmer-|ze,|der frent _|wegn be-|dren- get hat mich|Ar- men,|der|
 A2 c2 d2 f2 | e4 g4 | f4 e4 | d2 d2 c4 | z2 B2 G2 c2 | B3 c d2 d2 | e2 c2 B4 | ^c8 :| %23
w: die ich mir ge-|wünscht, denn|die ich|mir ge- wünscht,|den die ich|mir ge- wünscht, hab|ich be- lom-|men.|
w: ist nun hin- ge-|legt, der|ist nun|hin- ge- legt,|der ist nun|hin- ge- legt durch|ihr er- bar-|men.|
V:2
"^2)""^1)" g6 f2 | e4 d2 c2 | B4 B4 |[M:6/4] c2 e2 d2 B4 B2 | G2 A2 B2 c4 c2 |[M:3/4] c2 d2 e2 | %6
w: Im Leib|mein jung- es|Hert- ze,|thut sprin- gen, tan- zen,|weil mir die schan- zen,|so wol ge-|
w: Welchs macht,|dasz ich al-|lei- ne,|bin gu- ter din- ge,|und frö- lich sin- ge;|weil ich disz|
[M:4/4] f4 e4 | d4 c4 | B2 c4 B2 | c8 :: e4 e2 f2 | e6 e2 | c3 d c2 A2 | B4 B4 | z2 g2 d2 f2 | %15
w: ra- then,|dasz mir|kan ba- *|ten,|zu al- lem|glück, zu|gros- sen nutz und|from- men,|denn die ich|
w: en- de,|er- reicht|so b'hen- *|de,|da ich mit|forcht mein|hoff- nung bin ge-|ri- chtet,|das ist kein|
 cdef g2 a2 | g2 c2 G2 B2 | A2 A2 G2 g2 | f4 e4 | d4 e4 | d3 c B2 A2 | ^G2 A4 G2 | A8 :| %23
w: mir _ _ _ _ ge-|wünscht, denn die ich|mir ge- wünscht, denn|die ich|mir ge-|wünscht, hab ich be-|kom- * *|men.|
w: zwei- * * * * fel|mehr, da ist kein|zwei- fel mehr, da|ist kein|zwei- fel|mehr, es ist ge-|schli- * *|chtet.|
V:3
"^3)""^1)""^4)" C,6 D,2 | C,4 F,2 F,2 | G,4 G,4 |[M:6/4] C,2 C,2 D,2 G,4 E,2 | %4
w: Im Leib|mein jung- es|Hert- ze,|thut sprin- gen, tan- zen,|
w: Der- we-|gen der lie-|ben Gott,|ich danck drumb sa- ge,|
"^-natural" E,2 F,2 D,2 C,4 C,2 |[M:3/4] C2 _B,2 G,2 |[M:4/4] F,4 C2 C2 | _B,4 A,4 | G,8 | C,8 :: %10
w: weil mir die schan- zen,|so wol ge-|ra- then, dasz|mir kan|ba-|ten,|
w: der mei- ne kla- ge,|und bitt er-|hö- ret, das|ist, ver-|stö-|ret,|
 C4 C2 F,2 | C6 C2 | C3 B, C2 D2 | G,4 G,4 | C4 _B,4 | A,4 G,2 F,2 | C4 z2 G,2 | D,2 F,2 C,2 C,2 | %18
w: zu al- lem|glück, zu|gros- sen nutz und|from- men,|denn die|ich mir ge-|wünscht, denn|die ich mir ge-|
w: mein heim- lich|leid, da-|mit ich war umbt-|ge- ben,|nun bin|ich g'fund, jetzt|ist, nun|bin ich g'fund, jetzt|
 D,E,F,G, A,3 G, | ^F,2 G,2 C,4 | G,2 G,2 G,2 F,2 | E,8 | A,,8 :| %23
w: wünscht _ _ _ _ hab|ich be- kom-|men, hab ich be-|kom-|men.|
w: ist _ _ _ _ ver-|neut mein Le-|ben, ver- neut mein|Le-|ben.|

